X:1
T:The Rose of Sharon
T:The Rose of Sharon
T:Horatio Richmond Palmer
T:Horatio Richmond Palmer, 1878
T:Public Domain Courtesy of the Cyber Hymnal™
T:Public Domain Courtesy of the Cyber Hymnal™
C:Horatio Richmond Palmer
Z:Public Domain
Z:Courtesy of the Cyber Hymnal™
%%score ( 1 2 ) ( 3 4 ) ( 5 6 )
L:1/8
Q:1/4=95
M:4/4
K:F
V:1 treble 
V:2 treble 
V:3 treble 
V:4 treble 
V:5 bass 
V:6 bass 
V:1
 CF | A2 AA GA G2 | F4 C2 FA | c2 cc cd c2 | A6 CF | A2 AA GA G2 | F4 D2 BB | A2 BA GA G2 | %8
w: 1.~There’s a|Rose that is bloom- ing for|you, friend, There’s a|Rose that is bloom- ing for|me; Its per-|fume is per- vad- ing the|world, friend, Its per-|fume is for you and for|
w: 2.~Long a-|go in the val- ley so|fair, friend, Far a-|way by the beau- ti- ful|sea, This pure|Rose in its beau- ty first|bloomed, friend, And it|blooms still for you and for|
w: 3.~All in|vain did they crush this fair|flow’r, friend, All in|vain did they shat- ter the|tree; For its|roots, deep- ly bed- ded, sprang|forth, friend, And it|blooms still for you and for|
 F6 x3 ||"^Refrain" [Ac][Ac] | ([B-d]4 _B>)[Bd] [Ac]>[^G=B] | ([A-c]4 [FA]2) [FA][FA] | %12
w: me.||||
w: me.|There’s a|Rose, * a love- ly|Rose, * And its|
w: me.||||
 [EG][EG] [EG]>[EG] [DF]2 [EG]2 | ([FA-]4 [Ac]2) [Ac][Ac] x | ([B-d]4 _B>)[Bc] [Bd]>[Be] | %15
w: |||
w: beau- ty all the world shall|see; * There’s a|Rose, * a love- ly|
w: |||
 ([A-f]4 [Ac]2) F[FG] | [FA]2 [FB][FA] [EG][EA] [EG]2 | [CF]6 |] %18
w: |||
w: Rose; * Its per-|fume is for you and for|me.|
w: |||
V:2
 x2 | x8 | x8 | x8 | x8 | x8 | x8 | x8 | x9 || x2 | x4 _B3/2 x5/2 | x8 | x8 | x9 | x4 _B3/2 x5/2 | %15
 x6 F x | x8 | x6 |] %18
V:3
 z2 | z2 [A,CF]2 z2 [B,CE]2 | z2 [A,CF]2 [A,CF]2 [A,CF]2 | z2 [A,CF]2 z2 [B,CE]2 | z (A,CFAG)CA, | %5
 z2 [A,CF]2 z2 [B,CE]2 | z2 [A,F]2 z2 [B,DF]2 | [A,CF]2 z2 [B,CE]2 z2 | %8
 F4- ([C_E][=B,D][_B,_D] [A,CF]2) || x2 | x8 | x8 | x8 | x9 | x8 | x8 | x8 | x6 |] %18
V:4
 x2 | x8 | x8 | x8 | x8 | x8 | x8 | x8 | [A,C] x8 || x2 | x8 | x8 | x8 | x9 | x8 | x8 | x8 | x6 |] %18
V:5
 z2 | [F,,F,]4 [C,,C,]4 | [F,,F,]6 z2 | [F,,F,]4 [C,,C,]4 | [F,,F,]6 z2 | [F,,F,]4 [C,,C,]4 | %6
 [D,,D,]4 [B,,,B,,]4 | [C,,C,]2 z2 C,2 z2 | F,6 x3 || F,F, | %10
 [B,,B,]>[A,,C] [B,,D]>[C,E] [D,F]2 z3/2 F,/ | F,>[E,G,] [F,A,]>[G,B,] [A,C]2 [F,C][F,C] | %12
 [C,C][C,C] [C,B,]>[C,B,] [D,A,]2 [C,C]2 | z F,2 [F,,F,] [A,,F,] x4 | %14
 [B,,B,]>[A,,C] [B,,D]>[C,E] [D,F]2 z3/2 F,/ | F,>[E,G,] [F,A,]>[G,C] [A,F]2 [F,A,][F,B,] | %16
 [F,C]2 [F,D][F,C] [C,B,][C,C] [C,B,]2 | [F,A,]6 |] %18
V:6
 x2 | x8 | x8 | x8 | x8 | x8 | x8 | x8 | x9 || F,F, | x15/2 F,/ | F,3/2 x13/2 | x8 | %13
 ([F,C]4 A,)C,F,A,,C, | x15/2 F,/ | F,3/2 x13/2 | x8 | x6 |] %18

